X:18627
T:Whale Cove
R:reel
C:Brenda Stubbert, SOCAN
O:20th century Cape Breton
S:Tune of the Month, July 1999
A:<http://www.capebretonet.com/Music/Stubbert>
N:Contacts ...
N:Recordings and bookings
N:..... <brenda@cranfordpub.com
N:Tune books and related recordings
N:..... Cranford Publications <http://www.cranfordpub.com>
H:Copyrights:Published by Stubbert Music
Z:This abc transcription is for personal use only,
Z:provided this notice remains attached.
Z:Used by permission of the composer and publisher.
Z:Paul Stewart Cranford <psc@cranfordpub.com>
Q:333
L:1/8
M:C|
K:A
(3(efg)|a2 ed c<eAc|dcBA GBED|CEAc defg|aecA GBEg|!
a2 ed c<eAc|dcBA GBED|CEAc dfed|cABG A2:|!
|:Ad|cAeA cAAc|dBfB dBBd|ceag fedc|[1dcBA GBEd|!
cAeA cAAc|dBfB dBBd|ceag fedc|BEFG A2:|!
[2dcBA GBEg|a2 ed c<eAc|dcBA GBED|CEAc dfed|cABG A2:|!


